frontend/static/settlement.svg

<?xml version="1.0" encoding="utf-8"?>

<!DOCTYPE svg PUBLIC "-//W3C//DTD SVG 1.0//EN" "http://www.w3.org/TR/2001/REC-SVG-20010904/DTD/svg10.dtd">
<!-- Uploaded to: SVG Repo, www.svgrepo.com, Generator: SVG Repo Mixer Tools -->
<svg version="1.0" id="Layer_1" xmlns="http://www.w3.org/2000/svg" xmlns:xlink="http://www.w3.org/1999/xlink" 
	 width="800px" height="800px" viewBox="0 0 64 64" enable-background="new 0 0 64 64" xml:space="preserve">
<path fill="#231F20" d="M62.79,29.172l-28-28C34.009,0.391,32.985,0,31.962,0s-2.047,0.391-2.828,1.172l-28,28
	c-1.562,1.566-1.484,4.016,0.078,5.578c1.566,1.57,3.855,1.801,5.422,0.234L8,33.617V60c0,2.211,1.789,4,4,4h16V48h8v16h16
	c2.211,0,4-1.789,4-4V33.695l1.195,1.195c1.562,1.562,3.949,1.422,5.516-0.141C64.274,33.188,64.356,30.734,62.79,29.172z"/>
</svg>

<?xml version="1.0" encoding="UTF-8" standalone="no" ?>
<!DOCTYPE svg PUBLIC "-//W3C//DTD SVG 1.1//EN" "http://www.w3.org/Graphics/SVG/1.1/DTD/svg11.dtd">
<svg xmlns="http://www.w3.org/2000/svg" xmlns:xlink="http://www.w3.org/1999/xlink" version="1.1" width="1080" height="1080" viewBox="0 0 1080 1080" xml:space="preserve">
<desc>Created with Fabric.js 5.2.4</desc>
<defs>
</defs>
<rect x="0" y="0" width="100%" height="100%" fill="transparent"></rect>
<g transform="matrix(1 0 0 1 540 540)" id="93413bcb-f297-4f58-8861-142d94e8e0c2"  >
<rect style="stroke: none; stroke-width: 1; stroke-dasharray: none; stroke-linecap: butt; stroke-dashoffset: 0; stroke-linejoin: miter; stroke-miterlimit: 4; fill: rgb(255,255,255); fill-rule: nonzero; opacity: 1; visibility: hidden;" vector-effect="non-scaling-stroke"  x="-540" y="-540" rx="0" ry="0" width="1080" height="1080" />
</g>
<g transform="matrix(Infinity NaN NaN Infinity 0 0)" id="ef7c714f-3dd5-4cbb-99bd-563ffd925033"  >
</g>
<g transform="matrix(16.88 0 0 16.88 470.58 591.15)" id="SVGRepo_iconCarrier"  >
<path style="stroke: none; stroke-width: 1; stroke-dasharray: none; stroke-linecap: butt; stroke-dashoffset: 0; stroke-linejoin: miter; stroke-miterlimit: 4; fill: rgb(35,31,32); fill-rule: nonzero; opacity: 1;"  transform=" translate(-31.96, -32)" d="M 62.79 29.172 L 34.79 1.1720000000000006 C 34.009 0.391 32.985 0 31.962 0 C 30.939 0 29.915 0.391 29.134 1.172 L 1.1340000000000003 29.172 C -0.4279999999999997 30.738 -0.34999999999999964 33.188 1.2120000000000004 34.75 C 2.7780000000000005 36.32 5.067 36.551 6.634 34.984 L 8 33.617 L 8 60 C 8 62.211 9.789 64 12 64 L 28 64 L 28 48 L 36 48 L 36 64 L 52 64 C 54.211 64 56 62.211 56 60 L 56 33.695 L 57.195 34.89 C 58.757 36.452 61.144 36.312 62.711 34.749 C 64.274 33.188 64.356 30.734 62.79 29.172 z" stroke-linecap="round" />
</g>
<g transform="matrix(NaN NaN NaN NaN 0 0)"  >
<g style=""   >
</g>
</g>
<g transform="matrix(3.13 3.13 -3.13 3.13 186.56 290.12)" id="cc47daf2-9bd2-489f-8fb1-e947837e3e26"  >
<path style="stroke: rgb(0,0,0); stroke-width: 0; stroke-dasharray: none; stroke-linecap: butt; stroke-dashoffset: 0; stroke-linejoin: miter; stroke-miterlimit: 4; fill: rgb(35,31,32); fill-rule: nonzero; opacity: 1;" vector-effect="non-scaling-stroke"  transform=" translate(-50, -50)" d="M 94.75 50 C 94.75 56.213 89.514 61.25 83.054 61.25 L 16.946 61.25 C 10.486 61.25 5.25 56.213 5.25 50 L 5.25 50 C 5.25 43.787 10.486 38.75 16.945999999999998 38.75 L 83.053 38.75 C 89.514 38.75 94.75 43.787 94.75 50 L 94.75 50 z" stroke-linecap="round" />
</g>
<g transform="matrix(7.54 0 0 7.54 925.61 890.78)"  >
<path style="stroke: none; stroke-width: 1; stroke-dasharray: none; stroke-linecap: butt; stroke-dashoffset: 0; stroke-linejoin: miter; stroke-miterlimit: 4; fill: rgb(35,31,32); fill-rule: nonzero; opacity: 1;"  transform=" translate(-31.96, -32)" d="M 62.79 29.172 L 34.79 1.1720000000000006 C 34.009 0.391 32.985 0 31.962 0 C 30.939 0 29.915 0.391 29.134 1.172 L 1.1340000000000003 29.172 C -0.4279999999999997 30.738 -0.34999999999999964 33.188 1.2120000000000004 34.75 C 2.7780000000000005 36.32 5.067 36.551 6.634 34.984 L 8 33.617 L 8 60 C 8 62.211 9.789 64 12 64 L 28 64 L 28 48 L 36 48 L 36 64 L 52 64 C 54.211 64 56 62.211 56 60 L 56 33.695 L 57.195 34.89 C 58.757 36.452 61.144 36.312 62.711 34.749 C 64.274 33.188 64.356 30.734 62.79 29.172 z" stroke-linecap="round" />
</g>
</svg>
